packages/react-icons/icons/share.svg

<svg width="24" height="24" viewBox="0 0 24 24" xmlns="http://www.w3.org/2000/svg"><path fill-rule="evenodd" clip-rule="evenodd" d="M8.20549 6.4224C7.85402 6.77387 7.85403 7.34372 8.2055 7.69519C8.55698 8.04666 9.12683 8.04665 9.4783 7.69518L11.1001 6.07331V13.0026C11.1001 13.4997 11.5031 13.9026 12.0001 13.9026C12.4972 13.9026 12.9001 13.4997 12.9001 13.0026V6.07328L14.522 7.69518C14.8735 8.04666 15.4433 8.04666 15.7948 7.69518C16.1463 7.34371 16.1463 6.77386 15.7948 6.42239L12.6365 3.26409C12.4677 3.09531 12.2388 3.00049 12.0001 3.00049C11.7614 3.00049 11.5325 3.09531 11.3637 3.2641L8.20549 6.4224ZM4.07861 9.81662C4.07861 9.2091 4.5711 8.71662 5.17861 8.71662H7.71445C8.21151 8.71662 8.61445 9.11956 8.61445 9.61662C8.61445 10.1137 8.21151 10.5166 7.71445 10.5166H5.87861V12.492V19.2008H10.6476H13.3521H18.1211V12.492V10.5166H16.2853C15.7882 10.5166 15.3853 10.1137 15.3853 9.61662C15.3853 9.11956 15.7882 8.71662 16.2853 8.71662H18.8211C19.4286 8.71662 19.9211 9.2091 19.9211 9.81662V12.492V19.9008C19.9211 20.5083 19.4286 21.0008 18.8211 21.0008H13.3521H10.6476H5.17861C4.5711 21.0008 4.07861 20.5083 4.07861 19.9008V12.492V9.81662Z"/></svg>

<svg xmlns="http://www.w3.org/2000/svg" width="24" height="24"><path fill-rule="evenodd" d="M8.205 6.422a.9.9 0 1 0 1.273 1.273L11.1 6.073v6.93a.9.9 0 0 0 1.8 0v-6.93l1.622 1.622a.9.9 0 1 0 1.273-1.273l-3.159-3.158a.9.9 0 0 0-1.272 0L8.205 6.422ZM4.08 9.817a1.1 1.1 0 0 1 1.1-1.1h2.535a.9.9 0 1 1 0 1.8H5.88V19.2h12.243v-8.684h-1.837a.9.9 0 1 1 0-1.8h2.536a1.1 1.1 0 0 1 1.1 1.1V19.9a1.1 1.1 0 0 1-1.1 1.1H5.178a1.1 1.1 0 0 1-1.1-1.1V9.817Z" clip-rule="evenodd"/></svg>
